!! 00001] TT[TB
!! Zh. CH., Cassette Nr. HL-172 (= Y 142 Shanghai)
!!!OTL: Ba gen luchai hua
!!!ARE: Asia, China,Jiangsu, Jiangdu
!! Ethnic Group: Han
!! III, 479 (unten)
!!!SCT: C1390
!!!YEM: Copyright 1995, estate of Helmut Schaffrath.
**kern
*ICvox
*Ivox
*M2/4
*k[b-e-]
*B-:
{8bb-
8ddd
8ccc
16bb-
16gg
=1
8bb-
8ddd
8ccc
16bb-
16gg}
=2
{8ff
16ff
16dd
8ff
16ff
16gg
=3
8bb-
8ddd
16ccc
16bb-
16gg
16ff}
=4
{8bb-
16bb-
16ccc
8bb-
16gg
16ff
=5
8dd
8cc
4b-}
=6
{8ff
16ff
16dd
8ff
16ff
16gg
=7
8bb-
8ddd
8ccc
16bb-
16gg}
=8
{8bb-
8ff
16gg
16ff
16gg
16bb-
=9
2ff}
=10
{8ddd
16ddd
16ccc
16bb-
16ccc
16fff
16ddd
=11
4ccc
8bb-
8gg}
=12
{16bb-
8bb-
16gg
16ff
16gg
8bb-
=13
8gg
16gg
16bb-
8dd
16cc
16dd}
=14
{8.ff
16bb-
16gg
16ff
16dd
16cc
=15
2b-}
==
!!!AGN: Yangtiange (Reiskeim-Beetlied); Arbeit
!! Variante dazu existiert; Notation = Variante; Gesang enthaelt
!!    Einschuebe nach Takt 10 und viele kleine Verzierungen.
!!    Pinyin-Text der ersten Strophe vorhanden! Strophenlied.
!!    Gesang = Variante.
!!!ONB: ESAC (Essen Associative Code) Database: CHINA_045
!!!AMT: simple duple
!!!AIN: vox
!!!EED: Helmut Schaffrath
!!!EEV: 1.0
*-
